X: 232
%
U:~=!turn!
T: The Highlandman Kiss'd his Mother
C:
O:Scotland
B:Keith Norman MacDonald : "The Skye collection of the best reels & strathspeys extant" : 1887
Z:Ralph Palmer
R:Reel
M:C
L:1/8
K:C
(cg)ge (gc)ge | (cg)ge dBGB | (cg)ge (gc)ge | afge dBGB :| ceAe ceAe | ceAe dBGB |
ceAe ceAg | afge dBGB | ceAe ceAe | ceAe dBGB | ceAe ceAg | afge dBGB |]


